proprietary/assets/icons/op-kantoor/kartonnen-doos.svg

<svg height="64" viewBox="0 0 64 64" width="64" xmlns="http://www.w3.org/2000/svg"><path d="m0 0h64v64h-64z" fill="none"/><path d="m57.6462 21.8376-7.1137-13.3188c-.233-.4363-.6195-.7709-1.0848-.9389l-15.4477-5.5799 2.2573 15.8013c4.4818 1.2274 17.1561 4.6994 17.4471 4.7928.3536.1134.3019.3432.2787.4059h-43.9662c-.0233-.0627-.0749-.2925.2787-.4059.291-.0934 12.9654-3.5654 17.4471-4.7928l2.2573-15.8013-15.4478 5.5799c-.4653.168-.8517.5026-1.0848.9389l-7.1136 13.3187c-.2323.4349-.3538.9204-.3538 1.4135v35.749c0 .5523.4477 1 1 1h50c.5523 0 1-.4477 1-1v-35.749c0-.4931-.1215-.9785-.3538-1.4134zm-32.6462 16.1624c0 2.4189-1.7178 4.4359-4 4.8992v3.1662c1.1848.1031 3 .3552 3 .9346v.5c0 .2761-.2239.5-.5.5h-3.5-.648-2.852c-.2761 0-.5-.2239-.5-.5v-.5c0-.5793 1.8152-.8314 3-.9346v-3.1662c-2.2822-.4634-4-2.4803-4-4.8992v-4h10zm10.5-4 4 5h-2.5v5h-3v-5h-2.5zm13.5 14h-17v-2h17zm-2-9v5h-3v-5h-2.5l4-5 4 5z"/></svg>

<?xml version="1.0" encoding="utf-8"?>
<!-- Generator: Adobe Illustrator 17.1.0, SVG Export Plug-In . SVG Version: 6.00 Build 0)  -->
<svg version="1.2" baseProfile="tiny" xmlns="http://www.w3.org/2000/svg" xmlns:xlink="http://www.w3.org/1999/xlink" x="0px"
	 y="0px" width="64px" height="64px" viewBox="0 0 64 64" xml:space="preserve">
<g id="Box">
	<rect fill="none" width="64" height="64"/>
</g>
<g id="Icon">
	<path d="M57.6462,21.8376L50.5325,8.5188c-0.233-0.4363-0.6195-0.7709-1.0848-0.9389L34,2l2.2573,15.8013
		c4.4818,1.2274,17.1561,4.6994,17.4471,4.7928c0.3536,0.1134,0.3019,0.3432,0.2787,0.4059H10.0169
		c-0.0233-0.0627-0.0749-0.2925,0.2787-0.4059c0.291-0.0934,12.9654-3.5654,17.4471-4.7928L30,2L14.5522,7.5799
		c-0.4653,0.168-0.8517,0.5026-1.0848,0.9389L6.3538,21.8375C6.1215,22.2724,6,22.7579,6,23.251V59c0,0.5523,0.4477,1,1,1h50
		c0.5523,0,1-0.4477,1-1V23.251C58,22.7579,57.8785,22.2725,57.6462,21.8376z M25,38c0,2.4189-1.7178,4.4359-4,4.8992v3.1662
		c1.1848,0.1031,3,0.3552,3,0.9346v0.5c0,0.2761-0.2239,0.5-0.5,0.5H20h-0.648H16.5c-0.2761,0-0.5-0.2239-0.5-0.5V47
		c0-0.5793,1.8152-0.8314,3-0.9346v-3.1662c-2.2822-0.4634-4-2.4803-4-4.8992v-4h10V38z M35.5,34l4,5H37v5h-3v-5h-2.5L35.5,34z
		 M49,48H32v-2h17V48z M47,39v5h-3v-5h-2.5l4-5l4,5H47z"/>
</g>
</svg>
